assets/illustrations/multisize/72/vsdx.svg

<svg data-name="ICONS" xmlns="http://www.w3.org/2000/svg" viewBox="0 0 72 72"><defs><linearGradient id="a" x1="11.467" y1="7.804" x2="63.639" y2="69.981" gradientUnits="userSpaceOnUse"><stop offset="0" stop-color="#fff" stop-opacity="0"/><stop offset=".862" stop-color="#5e5e5e" stop-opacity=".063"/><stop offset="1" stop-opacity=".1"/></linearGradient><linearGradient id="b" x1="57" y1="24.844" x2="57" y2="20.146" gradientUnits="userSpaceOnUse"><stop offset="0" stop-color="#828282" stop-opacity="0"/><stop offset=".862" stop-color="#303030" stop-opacity=".063"/><stop offset="1" stop-opacity=".1"/></linearGradient><linearGradient id="c" x1="25.966" y1="65.803" x2="26.798" y2="58.018" gradientUnits="userSpaceOnUse"><stop offset="0" stop-color="#828282" stop-opacity="0"/><stop offset=".862" stop-color="#303030" stop-opacity=".126"/><stop offset="1" stop-opacity=".2"/></linearGradient><linearGradient id="d" x1="53.792" y1="23.208" x2="62.501" y2="14.499" gradientUnits="userSpaceOnUse"><stop offset="0" stop-color="#fff" stop-opacity="0"/><stop offset=".446" stop-color="#fff" stop-opacity=".008"/><stop offset=".636" stop-color="#fff" stop-opacity=".036"/><stop offset=".776" stop-color="#fff" stop-opacity=".085"/><stop offset=".892" stop-color="#fff" stop-opacity=".154"/><stop offset=".993" stop-color="#fff" stop-opacity=".243"/><stop offset="1" stop-color="#fff" stop-opacity=".25"/></linearGradient><linearGradient id="e" x1="21.5" y1="58.75" x2="21.5" y2="21.167" gradientUnits="userSpaceOnUse"><stop offset="0" stop-color="#fff" stop-opacity="0"/><stop offset=".526" stop-color="#fff" stop-opacity=".007"/><stop offset=".715" stop-color="#fff" stop-opacity=".034"/><stop offset=".85" stop-color="#fff" stop-opacity=".08"/><stop offset=".959" stop-color="#fff" stop-opacity=".146"/><stop offset="1" stop-color="#fff" stop-opacity=".18"/></linearGradient></defs><path fill="#fff" d="M65 67H17V5h34l14 14v48z"/><path d="M52 4H16v64h50V18zm0 3l11 11H52zm12 59H18V6h32v14h14z" fill="#949494"/><path d="M54 47.09V41h-4v-4.09a6 6 0 1 0-2 0V41h-6v-5H31v12h11v-5h10v4.09a6 6 0 1 0 2 0zM45 31a4 4 0 1 1 4 4 4.005 4.005 0 0 1-4-4zm-5 15h-7v-8h7zm13 11a4 4 0 1 1 4-4 4.005 4.005 0 0 1-4 4z" fill="#c8c8c8"/><path fill="#2c5898" d="M6 25l31-5v40L6 55V25z"/><path d="M30 31l-6.23 18h-4.616L13 31h4.389l3.77 12.527a8.96 8.96 0 0 1 .366 1.795h.076a10.08 10.08 0 0 1 .39-1.845L25.738 31z" fill="#fff"/><circle cx="24" cy="12" r="1" fill="#c8c8c8"/><circle cx="31" cy="12" r="1" fill="#c8c8c8"/><circle cx="31" cy="19" r="1" fill="#c8c8c8"/><circle cx="38" cy="12" r="1" fill="#c8c8c8"/><circle cx="45" cy="12" r="1" fill="#c8c8c8"/><circle cx="58" cy="26" r="1" fill="#c8c8c8"/><circle cx="58" cy="33" r="1" fill="#c8c8c8"/><circle cx="58" cy="40" r="1" fill="#c8c8c8"/><circle cx="43" cy="58" r="1" fill="#c8c8c8"/><path d="M52 4H16v19.387L6 25v30l10 1.613V68h50V18z" fill="url(#a)"/><path fill="url(#b)" d="M50 20h14v5H50z"/><path fill="url(#c)" d="M37 65H16v-8.38L37 60v5z"/><path fill="url(#d)" d="M66 18L52 4H16v2h34v14h14v48h2V18z"/><path fill="url(#e)" d="M37 20L6 25v30l31 5V20z"/></svg>

<svg id="ICONS" xmlns="http://www.w3.org/2000/svg" xmlns:xlink="http://www.w3.org/1999/xlink" viewBox="0 0 72 72"><defs><style>.cls-1{fill:#fff;}.cls-2{fill:#a6a6a6;}.cls-3{fill:#c8c8c8;}.cls-4{fill:#2c5898;}.cls-5{fill:url(#linear-gradient);}.cls-6{fill:url(#linear-gradient-2);}.cls-7{fill:url(#linear-gradient-3);}.cls-8{fill:url(#linear-gradient-4);}.cls-9{fill:url(#linear-gradient-5);}</style><linearGradient id="linear-gradient" x1="11.47" y1="7.8" x2="63.64" y2="69.98" gradientUnits="userSpaceOnUse"><stop offset="0" stop-color="#fff" stop-opacity="0"/><stop offset="0.86" stop-color="#5e5e5e" stop-opacity="0.06"/><stop offset="1" stop-opacity="0.1"/></linearGradient><linearGradient id="linear-gradient-2" x1="57" y1="24.84" x2="57" y2="20.15" gradientUnits="userSpaceOnUse"><stop offset="0" stop-color="#828282" stop-opacity="0"/><stop offset="0.86" stop-color="#303030" stop-opacity="0.06"/><stop offset="1" stop-opacity="0.1"/></linearGradient><linearGradient id="linear-gradient-3" x1="25.97" y1="65.8" x2="26.8" y2="58.02" gradientUnits="userSpaceOnUse"><stop offset="0" stop-color="#828282" stop-opacity="0"/><stop offset="0.86" stop-color="#303030" stop-opacity="0.13"/><stop offset="1" stop-opacity="0.2"/></linearGradient><linearGradient id="linear-gradient-4" x1="53.79" y1="23.21" x2="62.5" y2="14.5" gradientUnits="userSpaceOnUse"><stop offset="0" stop-color="#fff" stop-opacity="0"/><stop offset="0.45" stop-color="#fff" stop-opacity="0.01"/><stop offset="0.64" stop-color="#fff" stop-opacity="0.04"/><stop offset="0.78" stop-color="#fff" stop-opacity="0.08"/><stop offset="0.89" stop-color="#fff" stop-opacity="0.15"/><stop offset="0.99" stop-color="#fff" stop-opacity="0.24"/><stop offset="1" stop-color="#fff" stop-opacity="0.25"/></linearGradient><linearGradient id="linear-gradient-5" x1="21.5" y1="58.75" x2="21.5" y2="21.17" gradientUnits="userSpaceOnUse"><stop offset="0" stop-color="#fff" stop-opacity="0"/><stop offset="0.53" stop-color="#fff" stop-opacity="0.01"/><stop offset="0.72" stop-color="#fff" stop-opacity="0.03"/><stop offset="0.85" stop-color="#fff" stop-opacity="0.08"/><stop offset="0.96" stop-color="#fff" stop-opacity="0.15"/><stop offset="1" stop-color="#fff" stop-opacity="0.18"/></linearGradient></defs><title>Artboard 231</title><polygon class="cls-1" points="65 67 17 67 17 5 51 5 65 19 65 67"/><path class="cls-2" d="M52,4H16V68H66V18Zm0,3L63,18H52ZM64,66H18V6H50V20H64Z"/><path class="cls-3" d="M54,47.09V43h0V41H50V36.91a6,6,0,1,0-2,0V41H42V36H31V48H42V43H52v4.09a6,6,0,1,0,2,0ZM45,31a4,4,0,1,1,4,4A4,4,0,0,1,45,31ZM40,46H33V38h7ZM53,57a4,4,0,1,1,4-4A4,4,0,0,1,53,57Z"/><polygon class="cls-4" points="6 25 37 20 37 60 6 55 6 25"/><path class="cls-1" d="M30,31,23.77,49H19.15L13,31h4.39l3.77,12.53a9,9,0,0,1,.37,1.79h.08A10.08,10.08,0,0,1,22,43.48L25.74,31Z"/><circle class="cls-3" cx="24" cy="12" r="1"/><circle class="cls-3" cx="31" cy="12" r="1"/><circle class="cls-3" cx="31" cy="19" r="1"/><circle class="cls-3" cx="38" cy="12" r="1"/><circle class="cls-3" cx="45" cy="12" r="1"/><circle class="cls-3" cx="58" cy="26" r="1"/><circle class="cls-3" cx="58" cy="33" r="1"/><circle class="cls-3" cx="58" cy="40" r="1"/><circle class="cls-3" cx="43" cy="58" r="1"/><path class="cls-5" d="M52,4H16V23.39L6,25V55l10,1.61V68H66V18Z"/><rect class="cls-6" x="50" y="20" width="14" height="5"/><polygon class="cls-7" points="37 65 16 65 16 56.62 37 60 37 65"/><polygon class="cls-8" points="66 18 52 4 16 4 16 6 50 6 50 20 64 20 64 68 66 68 66 18"/><polygon class="cls-9" points="37 20 6 25 6 55 37 60 37 20"/></svg>
